img/apple-podcasts.svg

<svg width="24" height="24" viewBox="0 0 24 24" fill="none" xmlns="http://www.w3.org/2000/svg">
<path fill-rule="evenodd" clip-rule="evenodd" d="M21.992 22.816C22.76 22.224 23.296 21.392 23.528 20.8C23.992 19.608 24 18.256 24 17.4V6.6C24 5.752 24 4.392 23.528 3.2C23.296 2.608 22.752 1.768 21.992 1.184C21.491 0.785065 20.9179 0.486297 20.304 0.304C19.528 0.08 18.584 0 17.4 0H6.6C5.416 0 4.472 0.08 3.696 0.304C3.08342 0.489608 2.51093 0.788064 2.008 1.184C1.24 1.776 0.704 2.608 0.472 3.2C0.00800002 4.392 0 5.744 0 6.6V17.4C0 18.256 0.00800002 19.608 0.472 20.8C0.704 21.392 1.248 22.232 2.008 22.816C2.448 23.16 2.976 23.48 3.696 23.696C4.472 23.92 5.416 24 6.6 24H17.4C18.584 24 19.536 23.928 20.304 23.696C20.9166 23.5104 21.4891 23.2119 21.992 22.816ZM3.56 10.992C3.624 6.4 7.384 2.672 11.976 2.656C16.64 2.648 20.44 6.44 20.456 11.096C20.456 14.776 18.096 17.912 14.808 19.064C14.728 19.096 14.64 19.032 14.656 18.944L14.776 18.08C14.7797 18.0295 14.7973 17.9811 14.827 17.9401C14.8567 17.8991 14.8972 17.8672 14.944 17.848C17.544 16.704 19.368 14.112 19.368 11.096C19.368 7.016 16.032 3.704 11.944 3.736C7.952 3.768 4.688 7.024 4.648 11.024C4.63395 12.4702 5.04599 13.8885 5.83272 15.102C6.61945 16.3155 7.74605 17.2706 9.072 17.848C9.11625 17.8708 9.15451 17.9036 9.1837 17.9439C9.21288 17.9842 9.23217 18.0309 9.24 18.08C9.261 18.272 9.29 18.464 9.318 18.656L9.36 18.944C9.368 19.024 9.288 19.096 9.208 19.064C5.888 17.896 3.512 14.712 3.56 10.992ZM13.968 10.408C13.968 11.496 13.088 12.376 12 12.376C11.7415 12.3761 11.4856 12.3253 11.2467 12.2265C11.0079 12.1276 10.7909 11.9827 10.6081 11.7999C10.4253 11.6171 10.2804 11.4001 10.1815 11.1613C10.0827 10.9224 10.0319 10.6665 10.032 10.408C10.032 9.32 10.912 8.44 12 8.44C13.088 8.44 13.968 9.328 13.968 10.408ZM14.056 14.488C14.0371 14.2273 13.9232 13.9825 13.736 13.8C13.376 13.424 12.744 13.176 12 13.176C11.256 13.176 10.624 13.416 10.264 13.8C10.08 14 9.976 14.2 9.944 14.488C9.88 15.046 9.92 15.525 9.984 16.295V16.304C10.048 17.04 10.168 18.024 10.32 19.016C10.432 19.728 10.52 20.112 10.6 20.384C10.736 20.832 11.224 21.216 12 21.216C12.776 21.216 13.272 20.824 13.4 20.384C13.48 20.112 13.568 19.728 13.68 19.016C13.832 18.016 13.952 17.04 14.016 16.304C14.088 15.528 14.12 15.048 14.056 14.488ZM11.784 5.456C8.792 5.568 6.392 8.04 6.352 11.032C6.34007 11.9654 6.55961 12.8872 6.99098 13.7151C7.42235 14.5429 8.05212 15.251 8.824 15.776C8.896 15.824 9 15.768 9 15.68C8.97743 15.3578 8.97476 15.0345 8.992 14.712C8.99595 14.6611 8.98788 14.6099 8.96842 14.5626C8.94897 14.5154 8.91868 14.4734 8.88 14.44C8.40833 13.9988 8.03544 13.4628 7.78586 12.8671C7.53629 12.2714 7.41569 11.6296 7.432 10.984C7.46565 9.82454 7.93752 8.72092 8.75251 7.89553C9.56751 7.07015 10.6651 6.58434 11.824 6.536C12.439 6.51205 13.0525 6.61245 13.6277 6.83119C14.203 7.04993 14.7282 7.38251 15.1718 7.80902C15.6155 8.23552 15.9686 8.74718 16.2098 9.31335C16.4511 9.87952 16.5757 10.4886 16.576 11.104C16.576 12.416 16.016 13.6 15.128 14.44C15.0922 14.4757 15.0639 14.5181 15.0447 14.5648C15.0255 14.6115 15.0157 14.6615 15.016 14.712C15.032 15.024 15.024 15.328 15.008 15.672C15 15.76 15.104 15.824 15.184 15.768C15.945 15.2491 16.568 14.5524 16.9988 13.7382C17.4295 12.9241 17.6551 12.0171 17.656 11.096C17.664 7.912 15 5.328 11.784 5.456Z" fill="url(#paint0_linear_1_18)"/>
<defs>
<linearGradient id="paint0_linear_1_18" x1="12" y1="0" x2="12" y2="24" gradientUnits="userSpaceOnUse">
<stop stop-color="#F452FF"/>
<stop offset="1" stop-color="#832BC1"/>
</linearGradient>
</defs>
</svg>

<svg xmlns="http://www.w3.org/2000/svg" width="24" height="24" fill="none" viewBox="0 0 24 24">
  <g clip-path="url(#a)">
    <path fill="url(#b)" fill-rule="evenodd" d="M21.992 22.816c.768-.592 1.304-1.424 1.536-2.016.464-1.192.472-2.544.472-3.4V6.6c0-.848 0-2.208-.472-3.4-.232-.592-.776-1.432-1.536-2.016a4.99 4.99 0 0 0-1.688-.88C19.528.08 18.584 0 17.4 0H6.6C5.416 0 4.472.08 3.696.304a5.137 5.137 0 0 0-1.688.88C1.24 1.776.704 2.608.472 3.2.008 4.392 0 5.744 0 6.6v10.8c0 .856.008 2.208.472 3.4.232.592.776 1.432 1.536 2.016.44.344.968.664 1.688.88.776.224 1.72.304 2.904.304h10.8c1.184 0 2.136-.072 2.904-.304a5.137 5.137 0 0 0 1.688-.88ZM3.56 10.992c.064-4.592 3.824-8.32 8.416-8.336 4.664-.008 8.464 3.784 8.48 8.44 0 3.68-2.36 6.816-5.648 7.968-.08.032-.168-.032-.152-.12l.12-.864a.272.272 0 0 1 .168-.232c2.6-1.144 4.424-3.736 4.424-6.752 0-4.08-3.336-7.392-7.424-7.36-3.992.032-7.256 3.288-7.296 7.288a7.365 7.365 0 0 0 4.424 6.824.317.317 0 0 1 .168.232c.021.192.05.384.078.576l.042.288c.008.08-.072.152-.152.12-3.32-1.168-5.696-4.352-5.648-8.072Zm10.408-.584c0 1.088-.88 1.968-1.968 1.968a1.967 1.967 0 0 1-1.968-1.968c0-1.088.88-1.968 1.968-1.968s1.968.888 1.968 1.968Zm.088 4.08a1.069 1.069 0 0 0-.32-.688c-.36-.376-.992-.624-1.736-.624s-1.376.24-1.736.624c-.184.2-.288.4-.32.688-.064.558-.024 1.037.04 1.807v.009c.064.736.184 1.72.336 2.712.112.712.2 1.096.28 1.368.136.448.624.832 1.4.832.776 0 1.272-.392 1.4-.832.08-.272.168-.656.28-1.368.152-1 .272-1.976.336-2.712.072-.776.104-1.256.04-1.816Zm-2.272-9.032c-2.992.112-5.392 2.584-5.432 5.576a5.65 5.65 0 0 0 2.472 4.744c.072.048.176-.008.176-.096a7.853 7.853 0 0 1-.008-.968.326.326 0 0 0-.112-.272 4.574 4.574 0 0 1-1.448-3.456 4.585 4.585 0 0 1 4.392-4.448 4.574 4.574 0 0 1 4.752 4.568c0 1.312-.56 2.496-1.448 3.336a.381.381 0 0 0-.112.272c.016.312.008.616-.008.96-.008.088.096.152.176.096a5.661 5.661 0 0 0 2.472-4.672c.008-3.184-2.656-5.768-5.872-5.64Z" clip-rule="evenodd"/>
  </g>
  <defs>
    <linearGradient id="b" x1="12" x2="12" y1="0" y2="24" gradientUnits="userSpaceOnUse">
      <stop stop-color="#F452FF"/>
      <stop offset="1" stop-color="#832BC1"/>
    </linearGradient>
    <clipPath id="a">
      <path fill="#fff" d="M0 0h24v24H0z"/>
    </clipPath>
  </defs>
</svg>
